packages/bezier-icons/icons/kakao.svg

<svg width="24" height="24" viewBox="0 0 24 24" fill="none" xmlns="http://www.w3.org/2000/svg">
<path d="M6.05038 13.2945C6.1599 13.3982 6.30589 13.4544 6.45663 13.451C6.6046 13.4511 6.74671 13.3931 6.85251 13.2897C6.95831 13.1862 7.01939 13.0455 7.02268 12.8975V9.44467H7.94093C8.09106 9.44467 8.23503 9.38503 8.34119 9.27888C8.44734 9.17273 8.50698 9.02875 8.50698 8.87862C8.50698 8.7285 8.44734 8.58452 8.34119 8.47837C8.23503 8.37221 8.09106 8.31258 7.94093 8.31258H4.96605C4.81592 8.31258 4.67195 8.37221 4.56579 8.47837C4.45964 8.58452 4.4 8.7285 4.4 8.87862C4.4 9.02875 4.45964 9.17273 4.56579 9.27888C4.67195 9.38503 4.81592 9.44467 4.96605 9.44467H5.87172V12.8975C5.87665 13.0482 5.94085 13.1909 6.05038 13.2945Z" fill="#313234"/>
<path fill-rule="evenodd" clip-rule="evenodd" d="M11.2626 13.3973C11.349 13.4433 11.4474 13.4621 11.5448 13.451V13.4447C11.6727 13.4424 11.7988 13.4146 11.9158 13.363C12.0542 13.2875 12.2303 13.0862 12.0542 12.5391L10.6642 8.88491C10.6123 8.72049 10.5092 8.57691 10.3701 8.475C10.231 8.37308 10.0631 8.31814 9.89064 8.31814C9.7182 8.31814 9.55025 8.37308 9.41114 8.475C9.27204 8.57691 9.16903 8.72049 9.11705 8.88491L7.72709 12.5391C7.55099 13.0862 7.70193 13.2875 7.86546 13.363C7.98204 13.416 8.10847 13.4438 8.23653 13.4447C8.33307 13.4562 8.4308 13.4376 8.51637 13.3915C8.60193 13.3453 8.67114 13.2739 8.71453 13.1869L9.00384 12.4321H10.7963L11.0605 13.1932C11.1056 13.2801 11.1761 13.3512 11.2626 13.3973ZM9.89064 9.76543L10.4693 11.4133H9.31202L9.89064 9.76543Z" fill="#313234"/>
<path d="M12.7761 13.3347C12.8427 13.36 12.9138 13.3718 12.985 13.3693L14.8718 13.363C14.9465 13.3711 15.022 13.3634 15.0935 13.3404C15.165 13.3174 15.2308 13.2796 15.2867 13.2295C15.3426 13.1793 15.3873 13.118 15.4179 13.0494C15.4485 12.9808 15.4643 12.9066 15.4643 12.8315C15.4643 12.7564 15.4485 12.6822 15.4179 12.6136C15.3873 12.545 15.3426 12.4837 15.2867 12.4335C15.2308 12.3834 15.165 12.3456 15.0935 12.3226C15.022 12.2996 14.9465 12.2919 14.8718 12.3001H13.614V8.8912C13.614 8.73441 13.5517 8.58403 13.4408 8.47316C13.3299 8.36229 13.1796 8.3 13.0228 8.3C12.866 8.3 12.7156 8.36229 12.6047 8.47316C12.4938 8.58403 12.4316 8.73441 12.4316 8.8912V12.8409C12.4324 12.9122 12.4474 12.9826 12.4758 13.048C12.5042 13.1134 12.5454 13.1725 12.597 13.2217C12.6486 13.2709 12.7095 13.3093 12.7761 13.3347Z" fill="#313234"/>
<path d="M15.802 13.2775C15.9103 13.387 16.0575 13.4494 16.2115 13.451V13.4447C16.3647 13.4439 16.5115 13.3829 16.6203 13.2749C16.726 13.1621 16.7864 13.0143 16.7901 12.8598V11.6019L16.9914 11.4007L18.3562 13.2057C18.4084 13.278 18.4776 13.3365 18.5576 13.3759C18.6376 13.4154 18.7261 13.4347 18.8153 13.4321C18.9424 13.437 19.0671 13.3969 19.1675 13.3189C19.229 13.2734 19.2804 13.2156 19.3184 13.1491C19.3564 13.083 19.3819 13.0105 19.3939 12.9353C19.4051 12.86 19.4008 12.7833 19.3814 12.7098C19.3619 12.6363 19.3277 12.5675 19.2807 12.5076L17.853 10.6208L19.1738 9.29372C19.2205 9.24842 19.2565 9.19334 19.2793 9.13244C19.3022 9.07154 19.3112 9.00634 19.3059 8.94152C19.2948 8.8022 19.2319 8.67208 19.1298 8.57673C19.0792 8.52193 19.018 8.47804 18.9498 8.44776C18.8817 8.41747 18.8081 8.40144 18.7335 8.40063C18.674 8.40048 18.615 8.41207 18.56 8.43474C18.505 8.4574 18.4549 8.49069 18.4128 8.53271L16.7901 10.1491V8.8912C16.7901 8.73774 16.7291 8.59057 16.6206 8.48205C16.5121 8.37354 16.3649 8.31258 16.2115 8.31258C16.058 8.31258 15.9109 8.37354 15.8023 8.48205C15.6938 8.59057 15.6329 8.73774 15.6329 8.8912V12.8661C15.6329 13.0201 15.6936 13.168 15.802 13.2775Z" fill="#313234"/>
<path fill-rule="evenodd" clip-rule="evenodd" d="M5.25 22.29C5.44161 22.4006 5.65878 22.4592 5.88 22.46C5.99444 22.4589 6.10844 22.4455 6.22 22.42C6.48 22.36 7.06 22.09 10.48 19.69C11 19.77 11.49 19.77 12 19.77C18.07 19.77 23 15.78 23 10.89C23 6 18.07 2 12 2C5.93 2 1 6 1 10.89C1.04775 12.3792 1.48936 13.8292 2.27984 15.0922C3.07032 16.3552 4.18143 17.3861 5.5 18.08C5.17591 19.0654 4.90222 20.0667 4.68 21.08C4.64686 21.3153 4.68315 21.5551 4.7844 21.7701C4.88566 21.985 5.04748 22.1657 5.25 22.29ZM3 10.89C3 7.09 7 4 12 4C17 4 21.03 7.1 21.03 10.89C21.03 14.68 17.03 17.77 12.03 17.77C11.4815 17.7686 10.9337 17.7318 10.39 17.66L10 17.6L9.65 17.83L7.16 19.55C7.24543 19.2449 7.34204 18.91 7.44527 18.5521C7.5112 18.3235 7.57984 18.0856 7.65 17.84L7.88 17.04L7.13 16.67C4.54 15.39 3 13.23 3 10.89Z" fill="#313234"/>
</svg>

<svg xmlns="http://www.w3.org/2000/svg" width="24" height="24" fill="none" viewBox="0 0 24 24"><path fill="#313234" d="M6.05 13.295c.11.103.256.16.407.156a.566.566 0 0 0 .566-.553V9.445h.918a.566.566 0 0 0 0-1.132H4.966a.566.566 0 1 0 0 1.132h.906v3.453c.005.15.069.293.178.396"/><path fill="#313234" fill-rule="evenodd" d="M11.263 13.397a.5.5 0 0 0 .282.054v-.006a1 1 0 0 0 .37-.082c.14-.075.315-.277.14-.824l-1.39-3.654a.81.81 0 0 0-1.548 0l-1.39 3.654c-.176.547-.025.749.138.824q.177.08.372.082a.47.47 0 0 0 .478-.258l.289-.755h1.792l.264.761a.5.5 0 0 0 .203.204M9.89 9.765l.578 1.648H9.312z" clip-rule="evenodd"/><path fill="#313234" d="M12.776 13.335a.5.5 0 0 0 .209.034l1.887-.006a.535.535 0 1 0 0-1.063h-1.258V8.891a.591.591 0 0 0-1.182 0v3.95a.535.535 0 0 0 .344.494M15.802 13.278c.108.109.256.171.41.173v-.006c.153-.001.3-.062.408-.17a.63.63 0 0 0 .17-.415v-1.258l.201-.201 1.365 1.805a.55.55 0 0 0 .46.226.54.54 0 0 0 .352-.113.6.6 0 0 0 .15-.17.6.6 0 0 0 .076-.214.56.56 0 0 0-.113-.427l-1.428-1.887 1.32-1.327a.44.44 0 0 0 .133-.352.56.56 0 0 0-.176-.365.55.55 0 0 0-.396-.176.45.45 0 0 0-.321.132l-1.623 1.616V8.891a.579.579 0 0 0-1.157 0v3.975c0 .154.06.302.169.412"/><path fill="#313234" fill-rule="evenodd" d="M5.25 22.29c.192.11.409.17.63.17q.172-.002.34-.04c.26-.06.84-.33 4.26-2.73.52.08 1.01.08 1.52.08 6.07 0 11-3.99 11-8.88S18.07 2 12 2 1 6 1 10.89a8.43 8.43 0 0 0 4.5 7.19 31 31 0 0 0-.82 3 1.22 1.22 0 0 0 .57 1.21M3 10.89C3 7.09 7 4 12 4s9.03 3.1 9.03 6.89-4 6.88-9 6.88a13 13 0 0 1-1.64-.11L10 17.6l-.35.23-2.49 1.72q.129-.46.285-.998l.205-.712.23-.8-.75-.37C4.54 15.39 3 13.23 3 10.89" clip-rule="evenodd"/></svg>
